X:40
T:Dans en Dro
M:4/4
L:1/8
R:Slow Reel
Z:Ed Wosika
K:EAeo
|:ED| E2 B2 B2 AB| c3B A2FG| A2 AG AcBA| FEF2 G2F2|
EBBB B2 AB| c3~B A2FG| A2 AG AcBA|1 FEFz G2F2:|2 FEFz E2:|
|: EDE2 F2G2| z(3EEE F2G2| A2AG FcBA| FEF2 G2F2|
E2~ED F2G2| z(3EEE F2G2| A2AG FcBA| FEF2 E2 :|
% Written by ABC2Win  2.2.124 BETA on 1/30/2011
